X: 38665
T: Stranded In Miltown
R: jig
M: 6/8
K: Eminor
BAB EDE|BAB dBA|FEF DED|ABA AGF|
GFG BAG|FEF AGF|EDE FED|E3 E3:|
GFG BGE|BAB BAG|FAD FAD|FAD FAD|
GFG BGE|BAB BAG|BdB AGF|GFD E3:|
ede BAB|eBe gfe|dAf dAf|dAf dAf|
ede BAB|eBe gfe|dBA GFE|FED E3:|

